style-guide/assets/wds-icons-users.svg

<svg xmlns="http://www.w3.org/2000/svg" xmlns:xlink="http://www.w3.org/1999/xlink" width="24" height="24" viewBox="0 0 24 24">
  <defs>
    <path id="users-a" d="M16,10 C15.448,10 15,10.447 15,11 C15,11.553 15.448,12 16,12 C19.309,12 22,14.691 22,18 C22,18.553 22.448,19 23,19 C23.552,19 24,18.553 24,18 C24,13.589 20.411,10 16,10 M11,9 C11,10.65 9.65,12 8,12 C6.35,12 5,10.65 5,9 C5,7.35 6.35,6 8,6 C9.65,6 11,7.35 11,9 M19,5 C19,6.65 17.65,8 16,8 C14.35,8 13,6.65 13,5 C13,3.35 14.35,2 16,2 C17.65,2 19,3.35 19,5 M8,14 C3.589,14 0,17.589 0,22 C0,22.553 0.448,23 1,23 C1.552,23 2,22.553 2,22 C2,18.691 4.691,16 8,16 C11.309,16 14,18.691 14,22 C14,22.553 14.448,23 15,23 C15.552,23 16,22.553 16,22 C16,17.589 12.411,14 8,14"/>
  </defs>
  <use fill-rule="evenodd" xlink:href="#users-a"/>
</svg>

<svg viewBox="0 0 24 24" xmlns="http://www.w3.org/2000/svg">
  <path d="M16 10a1 1 0 1 0 0 2c3.309 0 6 2.691 6 6a1 1 0 1 0 2 0c0-4.411-3.589-8-8-8m-5-1c0 1.65-1.35 3-3 3s-3-1.35-3-3 1.35-3 3-3 3 1.35 3 3m8-4c0 1.65-1.35 3-3 3s-3-1.35-3-3 1.35-3 3-3 3 1.35 3 3M8 14c-4.411 0-8 3.589-8 8a1 1 0 1 0 2 0c0-3.309 2.691-6 6-6s6 2.691 6 6a1 1 0 1 0 2 0c0-4.411-3.589-8-8-8"/>
</svg>
